X:1
T:Old Judge Duffy
M:3/4
L:1/4
K:G
 D| B, C ^C| D B A| G F/2 E3/2| D2 D/2D/2| E F G| A F D| G3-| G2 D|\
 B, C ^C| D B A| G F/2 E3/2| D2D/2-D/2| E F G| A F D| G3-| G2 D| B, C ^C|\
 D B A| G F E| D2D/2-D/2| E F G| G F E| F G E| A2D/2-D/2| B, C ^C|\
 D B A| G F E| D2 D/2D/2| E F G| G D G| B G A| G2||
